COLOR/action 16/16/snap-page.svg

<svg height="16" width="16" xmlns="http://www.w3.org/2000/svg"><path d="m3.78125.5c-1.8050906 0-3.28125 1.4761594-3.28125 3.28125v8.4375c0 1.805091 1.4761594 3.28125 3.28125 3.28125h8.4375c1.805091 0 3.28125-1.476159 3.28125-3.28125v-8.4375c0-1.8050906-1.476159-3.28125-3.28125-3.28125zm0 1.5019531h8.4375c.999216 0 1.779297.7800806 1.779297 1.7792969v8.4375c0 .999216-.780081 1.779297-1.779297 1.779297h-8.4375c-.9992163 0-1.7792969-.780081-1.7792969-1.779297v-8.4375c0-.9992163.7800806-1.7792969 1.7792969-1.7792969z" fill="#1d99f3"/><path d="m3.78125.5c-1.8050906 0-3.28125 1.4761594-3.28125 3.28125v.5c0-1.8050906 1.4761594-3.28125 3.28125-3.28125h8.4375c1.805091 0 3.28125 1.4761594 3.28125 3.28125v-.5c0-1.8050906-1.476159-3.28125-3.28125-3.28125zm-1.7792969 11.71875v.5c0 .999216.7800806 1.779297 1.7792969 1.779297h8.4375c.999216 0 1.779297-.780081 1.779297-1.779297v-.5c0 .999216-.780081 1.779297-1.779297 1.779297h-8.4375c-.9992163 0-1.7792969-.780081-1.7792969-1.779297z" fill="#fff" opacity=".3"/><path d="m12.218751 15.5c1.80509 0 3.28125-1.476159 3.28125-3.28125v-.5c0 1.805091-1.47616 3.28125-3.28125 3.28125h-8.437501c-1.805091 0-3.28125-1.476159-3.28125-3.28125v.5c0 1.805091 1.476159 3.28125 3.28125 3.28125zm1.779296-11.71875v-.5c0-.999216-.78008-1.779297-1.779296-1.779297h-8.437501c-.999216 0-1.779297.780081-1.779297 1.779297v.5c0-.999216.780081-1.779297 1.779297-1.779297h8.437501c.999216 0 1.779296.780081 1.779296 1.779297z" opacity=".2"/></svg>

<?xml version="1.0" encoding="UTF-8" standalone="no"?>
<svg
   xmlns:dc="http://purl.org/dc/elements/1.1/"
   xmlns:cc="http://creativecommons.org/ns#"
   xmlns:rdf="http://www.w3.org/1999/02/22-rdf-syntax-ns#"
   xmlns:svg="http://www.w3.org/2000/svg"
   xmlns="http://www.w3.org/2000/svg"
   xmlns:sodipodi="http://sodipodi.sourceforge.net/DTD/sodipodi-0.dtd"
   xmlns:inkscape="http://www.inkscape.org/namespaces/inkscape"
   height="16"
   width="16"
   version="1.1"
   id="svg4"
   sodipodi:docname="snap-page.svg"
   inkscape:version="0.92.4 (5da689c313, 2019-01-14)">
  <metadata
     id="metadata10">
    <rdf:RDF>
      <cc:Work
         rdf:about="">
        <dc:format>image/svg+xml</dc:format>
        <dc:type
           rdf:resource="http://purl.org/dc/dcmitype/StillImage" />
      </cc:Work>
    </rdf:RDF>
  </metadata>
  <defs
     id="defs8" />
  <sodipodi:namedview
     pagecolor="#ffffff"
     bordercolor="#666666"
     borderopacity="1"
     objecttolerance="10"
     gridtolerance="10"
     guidetolerance="10"
     inkscape:pageopacity="0"
     inkscape:pageshadow="2"
     inkscape:window-width="1920"
     inkscape:window-height="1016"
     id="namedview6"
     showgrid="false"
     inkscape:zoom="14.75"
     inkscape:cx="8"
     inkscape:cy="8"
     inkscape:window-x="0"
     inkscape:window-y="27"
     inkscape:window-maximized="1"
     inkscape:current-layer="svg4" />
  <path
     style="color:#000000;font-style:normal;font-variant:normal;font-weight:normal;font-stretch:normal;font-size:medium;line-height:normal;font-family:sans-serif;font-variant-ligatures:normal;font-variant-position:normal;font-variant-caps:normal;font-variant-numeric:normal;font-variant-alternates:normal;font-feature-settings:normal;text-indent:0;text-align:start;text-decoration:none;text-decoration-line:none;text-decoration-style:solid;text-decoration-color:#000000;letter-spacing:normal;word-spacing:normal;text-transform:none;writing-mode:lr-tb;direction:ltr;text-orientation:mixed;dominant-baseline:auto;baseline-shift:baseline;text-anchor:start;white-space:normal;shape-padding:0;clip-rule:nonzero;display:inline;overflow:visible;visibility:visible;opacity:1;isolation:auto;mix-blend-mode:normal;color-interpolation:sRGB;color-interpolation-filters:linearRGB;solid-color:#000000;solid-opacity:1;vector-effect:none;fill:#1d99f3;fill-opacity:1;fill-rule:nonzero;stroke:none;stroke-width:1.50152802;stroke-linecap:round;stroke-linejoin:round;stroke-miterlimit:4;stroke-dasharray:none;stroke-dashoffset:0;stroke-opacity:1;color-rendering:auto;image-rendering:auto;shape-rendering:auto;text-rendering:auto;enable-background:accumulate"
     d="M 3.78125,0.5 C 1.9761594,0.5 0.5,1.9761594 0.5,3.78125 v 8.4375 C 0.5,14.023841 1.9761594,15.5 3.78125,15.5 h 8.4375 C 14.023841,15.5 15.5,14.023841 15.5,12.21875 V 3.78125 C 15.5,1.9761594 14.023841,0.5 12.21875,0.5 Z m 0,1.5019531 h 8.4375 c 0.999216,0 1.779297,0.7800806 1.779297,1.7792969 v 8.4375 c 0,0.999216 -0.780081,1.779297 -1.779297,1.779297 h -8.4375 c -0.9992163,0 -1.7792969,-0.780081 -1.7792969,-1.779297 v -8.4375 c 0,-0.9992163 0.7800806,-1.7792969 1.7792969,-1.7792969 z"
     id="rect2"
     inkscape:connector-curvature="0" />
  <path
     style="color:#000000;font-style:normal;font-variant:normal;font-weight:normal;font-stretch:normal;font-size:medium;line-height:normal;font-family:sans-serif;font-variant-ligatures:normal;font-variant-position:normal;font-variant-caps:normal;font-variant-numeric:normal;font-variant-alternates:normal;font-feature-settings:normal;text-indent:0;text-align:start;text-decoration:none;text-decoration-line:none;text-decoration-style:solid;text-decoration-color:#000000;letter-spacing:normal;word-spacing:normal;text-transform:none;writing-mode:lr-tb;direction:ltr;text-orientation:mixed;dominant-baseline:auto;baseline-shift:baseline;text-anchor:start;white-space:normal;shape-padding:0;clip-rule:nonzero;display:inline;overflow:visible;visibility:visible;opacity:0.3;isolation:auto;mix-blend-mode:normal;color-interpolation:sRGB;color-interpolation-filters:linearRGB;solid-color:#000000;solid-opacity:1;vector-effect:none;fill:#ffffff;fill-opacity:1;fill-rule:nonzero;stroke:none;stroke-width:1.50152802;stroke-linecap:round;stroke-linejoin:round;stroke-miterlimit:4;stroke-dasharray:none;stroke-dashoffset:0;stroke-opacity:1;color-rendering:auto;image-rendering:auto;shape-rendering:auto;text-rendering:auto;enable-background:accumulate"
     d="M 3.78125 0.5 C 1.9761594 0.5 0.5 1.9761594 0.5 3.78125 L 0.5 4.28125 C 0.5 2.4761594 1.9761594 1 3.78125 1 L 12.21875 1 C 14.023841 1 15.5 2.4761594 15.5 4.28125 L 15.5 3.78125 C 15.5 1.9761594 14.023841 0.5 12.21875 0.5 L 3.78125 0.5 z M 2.0019531 12.21875 L 2.0019531 12.71875 C 2.0019531 13.717966 2.7820337 14.498047 3.78125 14.498047 L 12.21875 14.498047 C 13.217966 14.498047 13.998047 13.717966 13.998047 12.71875 L 13.998047 12.21875 C 13.998047 13.217966 13.217966 13.998047 12.21875 13.998047 L 3.78125 13.998047 C 2.7820337 13.998047 2.0019531 13.217966 2.0019531 12.21875 z "
     id="path819" />
  <path
     id="path824"
     d="m 12.218751,15.5 c 1.80509,0 3.28125,-1.476159 3.28125,-3.28125 v -0.5 c 0,1.805091 -1.47616,3.28125 -3.28125,3.28125 H 3.78125 C 1.976159,15 0.5,13.523841 0.5,11.71875 v 0.5 C 0.5,14.023841 1.976159,15.5 3.78125,15.5 Z M 13.998047,3.78125 v -0.5 c 0,-0.999216 -0.78008,-1.779297 -1.779296,-1.779297 H 3.78125 c -0.999216,0 -1.779297,0.780081 -1.779297,1.779297 v 0.5 c 0,-0.999216 0.780081,-1.779297 1.779297,-1.779297 h 8.437501 c 0.999216,0 1.779296,0.780081 1.779296,1.779297 z"
     style="color:#000000;font-style:normal;font-variant:normal;font-weight:normal;font-stretch:normal;font-size:medium;line-height:normal;font-family:sans-serif;font-variant-ligatures:normal;font-variant-position:normal;font-variant-caps:normal;font-variant-numeric:normal;font-variant-alternates:normal;font-feature-settings:normal;text-indent:0;text-align:start;text-decoration:none;text-decoration-line:none;text-decoration-style:solid;text-decoration-color:#000000;letter-spacing:normal;word-spacing:normal;text-transform:none;writing-mode:lr-tb;direction:ltr;text-orientation:mixed;dominant-baseline:auto;baseline-shift:baseline;text-anchor:start;white-space:normal;shape-padding:0;clip-rule:nonzero;display:inline;overflow:visible;visibility:visible;opacity:0.2;isolation:auto;mix-blend-mode:normal;color-interpolation:sRGB;color-interpolation-filters:linearRGB;solid-color:#000000;solid-opacity:1;vector-effect:none;fill:#000000;fill-opacity:1;fill-rule:nonzero;stroke:none;stroke-width:1.50152802;stroke-linecap:round;stroke-linejoin:round;stroke-miterlimit:4;stroke-dasharray:none;stroke-dashoffset:0;stroke-opacity:1;color-rendering:auto;image-rendering:auto;shape-rendering:auto;text-rendering:auto;enable-background:accumulate"
     inkscape:connector-curvature="0" />
</svg>
